themes/default/assets/images/icons/mid/sme.svg

<?xml version="1.0" encoding="UTF-8"?>
<svg width="100px" height="75px" viewBox="0 0 100 75" version="1.1" xmlns="http://www.w3.org/2000/svg" xmlns:xlink="http://www.w3.org/1999/xlink">
    <!-- Generator: sketchtool 59 (101010) - https://sketch.com -->
    <title>1797D6FB-E03A-4484-A726-D2EA6DC11850</title>
    <desc>Created with sketchtool.</desc>
    <g id="Page-1" stroke="none" stroke-width="1" fill="none" fill-rule="evenodd">
        <g id="Icons" transform="translate(-1093.000000, -2930.000000)" fill-rule="nonzero">
            <g id="mid-icon-sme" transform="translate(1093.000000, 2930.000000)">
                <path d="M52.7352941,0.05 L52.5490196,0 L6.1372549,13 L6.1372549,23.4 C6.13725491,23.7865993 6.44451047,24.1 6.82352941,24.1 C7.20254835,24.1 7.50980391,23.7865993 7.50980392,23.4 L7.50980392,14.08 L52.5490196,1.44 L97.5980392,14.08 L97.5980392,73.61 L93.8039216,73.61 L93.8039216,32.61 L54.5882353,32.61 L54.5882353,73.61 L48.7058824,73.61 L48.7058824,40.94 C48.7058824,40.5534007 48.3986268,40.24 48.0196078,40.24 C47.6405889,40.24 47.3333333,40.5534007 47.3333333,40.94 L47.3333333,73.61 L5.56862745,73.61 L5.56862745,41.19 C5.52718543,40.838234 5.23460457,40.5735165 4.8872549,40.5735165 C4.53990523,40.5735165 4.24732438,40.838234 4.20588235,41.19 L4.20588235,75 L99.0196078,75 L99.0196078,13 L52.7352941,0.05 Z M55.9803922,34 L92.4313725,34 L92.4313725,73.61 L55.9803922,73.61 L55.9803922,34 Z" id="Shape" fill="#A8C5DD"></path>
                <path d="M59.1764706,39.32 L89.2156863,39.32 C89.4786327,39.3522296 89.736294,39.227257 89.8777487,38.9988822 C90.0192033,38.7705074 90.0192033,38.4794926 89.8777487,38.2511178 C89.736294,38.022743 89.4786327,37.8977704 89.2156863,37.93 L59.1764706,37.93 C58.9135242,37.8977704 58.6558628,38.022743 58.5144082,38.2511178 C58.3729535,38.4794926 58.3729535,38.7705074 58.5144082,38.9988822 C58.6558628,39.227257 58.9135242,39.3522296 59.1764706,39.32 L59.1764706,39.32 Z" id="Path" fill="#A8C5DD"></path>
                <path d="M89.2156863,44 L59.1764706,44 C58.9135242,43.9677704 58.6558628,44.092743 58.5144082,44.3211178 C58.3729535,44.5494926 58.3729535,44.8405074 58.5144082,45.0688822 C58.6558628,45.297257 58.9135242,45.4222296 59.1764706,45.39 L89.2156863,45.39 C89.4786327,45.4222296 89.736294,45.297257 89.8777487,45.0688822 C90.0192033,44.8405074 90.0192033,44.5494926 89.8777487,44.3211178 C89.736294,44.092743 89.4786327,43.9677704 89.2156863,44 Z" id="Path" fill="#A8C5DD"></path>
                <path d="M89.2156863,50.05 L59.1764706,50.05 C58.9135242,50.0177704 58.6558628,50.142743 58.5144082,50.3711178 C58.3729535,50.5994926 58.3729535,50.8905074 58.5144082,51.1188822 C58.6558628,51.347257 58.9135242,51.4722296 59.1764706,51.44 L89.2156863,51.44 C89.4786327,51.4722296 89.736294,51.347257 89.8777487,51.1188822 C90.0192033,50.8905074 90.0192033,50.5994926 89.8777487,50.3711178 C89.736294,50.142743 89.4786327,50.0177704 89.2156863,50.05 L89.2156863,50.05 Z" id="Path" fill="#A8C5DD"></path>
                <path d="M89.2156863,56.11 L59.1764706,56.11 C58.9135242,56.0777704 58.6558628,56.202743 58.5144082,56.4311178 C58.3729535,56.6594926 58.3729535,56.9505074 58.5144082,57.1788822 C58.6558628,57.407257 58.9135242,57.5322296 59.1764706,57.5 L89.2156863,57.5 C89.4786327,57.5322296 89.736294,57.407257 89.8777487,57.1788822 C90.0192033,56.9505074 90.0192033,56.6594926 89.8777487,56.4311178 C89.736294,56.202743 89.4786327,56.0777704 89.2156863,56.11 L89.2156863,56.11 Z" id="Path" fill="#A8C5DD"></path>
                <path d="M89.2156863,62.17 L59.1764706,62.17 C58.9135242,62.1377704 58.6558628,62.262743 58.5144082,62.4911178 C58.3729535,62.7194926 58.3729535,63.0105074 58.5144082,63.2388822 C58.6558628,63.467257 58.9135242,63.5922296 59.1764706,63.56 L89.2156863,63.56 C89.4786327,63.5922296 89.736294,63.467257 89.8777487,63.2388822 C90.0192033,63.0105074 90.0192033,62.7194926 89.8777487,62.4911178 C89.736294,62.262743 89.4786327,62.1377704 89.2156863,62.17 L89.2156863,62.17 Z" id="Path" fill="#A8C5DD"></path>
                <path d="M89.2156863,68.23 L59.1764706,68.23 C58.9135242,68.1977704 58.6558628,68.322743 58.5144082,68.5511178 C58.3729535,68.7794926 58.3729535,69.0705074 58.5144082,69.2988822 C58.6558628,69.527257 58.9135242,69.6522296 59.1764706,69.62 L89.2156863,69.62 C89.4786327,69.6522296 89.736294,69.527257 89.8777487,69.2988822 C90.0192033,69.0705074 90.0192033,68.7794926 89.8777487,68.5511178 C89.736294,68.322743 89.4786327,68.1977704 89.2156863,68.23 Z" id="Path" fill="#A8C5DD"></path>
                <path d="M61.8627451,15.83 L61.8627451,28.51 L87.627451,28.51 L87.627451,15.83 L61.8627451,15.83 Z M86.2745098,27.12 L63.2352941,27.12 L63.2352941,17.22 L86.2745098,17.22 L86.2745098,27.12 Z" id="Shape" fill="#A8C5DD"></path>
                <path d="M74.745098,25.57 C76.5914501,25.5644691 78.0838198,24.0332889 78.0784174,22.1500099 C78.0729855,20.2667308 76.5718327,18.7445092 74.7254807,18.7500144 C72.8791286,18.7555495 71.3867503,20.2867209 71.3921422,22.17 C71.4029414,24.0509987 72.9009502,25.57 74.745098,25.57 L74.745098,25.57 Z M74.745098,20.15 C75.8280093,20.15 76.7058824,21.0454305 76.7058824,22.15 C76.7058824,23.2545695 75.8280093,24.15 74.745098,24.15 C73.6621868,24.15 72.7843137,23.2545695 72.7843137,22.15 C72.7843137,21.0454305 73.6621868,20.15 74.745098,20.15 Z" id="Shape" fill="#A8C5DD"></path>
                <path d="M25.0294118,63.05 L8.57843137,63.05 L8.57843137,50.83 L25.0294118,50.83 L25.0294118,63.05 Z M9.94117647,61.66 L23.6666667,61.66 L23.6666667,52.22 L9.94117647,52.22 L9.94117647,61.66 Z" id="Shape" fill="#032663"></path>
                <polygon id="Path" fill="#032663" points="44.627451 73.63 43.2647059 73.63 43.2647059 50.61 29.2352941 50.61 29.2352941 73.63 27.8627451 73.63 27.8627451 49.22 44.627451 49.22"></polygon>
                <path d="M52.2647059,32.26 C52.2701426,32.2168441 52.2701426,32.1731559 52.2647059,32.13 C52.2647059,32.08 52.2647059,32.04 52.2647059,32 C52.2600759,31.9836679 52.2600759,31.9663321 52.2647059,31.95 L46.8921569,22.73 L6.39215686,22.73 L0.980392157,32 C0.939414213,32.0806094 0.91600379,32.1693015 0.911764706,32.26 L0.911764706,34.04 C0.911764706,37.88 3.42156863,41.84 7.61764706,41.84 C9.66586217,41.8502835 11.6854123,41.3490312 13.5,40.38 C14.9117647,42.49 16.4411765,43.62 19.6960784,43.62 C21.9488053,43.7407342 24.1463969,42.8833529 25.745098,41.26 C27.6697481,42.8817564 30.1134046,43.722095 32.6078431,43.62 C35.7843137,43.62 38.0392157,42.62 39.6470588,40.39 C41.1505253,41.3598442 42.8977208,41.8635679 44.6764706,41.84 C48.8110329,41.6591627 52.1104393,38.2588937 52.245098,34.04 L52.245098,32.3 C52.245098,32.3 52.2647059,32.27 52.2647059,32.26 Z M50.4117647,31.62 L40.0392157,31.62 L37.8529412,24.1 L46.0784314,24.1 L50.4117647,31.62 Z M25.0588235,24.1 L25.0588235,31.62 L14.5784314,31.62 L16.7647059,24.1 L25.0588235,24.1 Z M26.4215686,24.1 L36.4411765,24.1 L38.627451,31.62 L26.4705882,31.62 L26.4215686,24.1 Z M7.16666667,24.1 L15.3529412,24.1 L13.1666667,31.62 L2.79411765,31.62 L7.16666667,24.1 Z M2.26470588,34.1 L2.26470588,33 L13,33 L13,39.1 C11.872549,40.02 9.23529412,40.52 7.6372549,40.52 C4.28431373,40.51 2.28431373,37.24 2.28431373,34.08 L2.26470588,34.1 Z M19.6862745,42.3 C17.0784314,42.3 15.7647059,41.57 14.3333333,39.23 L14.3333333,33 L25.0588235,33 L25.0588235,39.43 C25.0634306,39.5887906 25.1223972,39.7409245 25.2254902,39.86 L25.2254902,39.86 C23.8693535,41.5184719 21.8188569,42.4174854 19.7058824,42.28 L19.6862745,42.3 Z M32.6176471,42.3 C29.8823529,42.3 27.5490196,41.42 26.2352941,39.87 L26.2352941,39.87 C26.3383871,39.7509245 26.3973537,39.5987906 26.4019608,39.44 L26.4019608,33 L38.8529412,33 L38.8529412,39.2 C37.4901961,41.33 35.5686275,42.28 32.6372549,42.28 L32.6176471,42.3 Z M44.7058824,40.51 C43.0924831,40.5512803 41.509661,40.0564075 40.1960784,39.1 L40.1960784,33 L50.9215686,33 L50.9215686,34.09 C50.8122632,37.5577283 48.1039782,40.3550364 44.7058824,40.51 L44.7058824,40.51 Z" id="Shape" fill="#2969F6"></path>
            </g>
        </g>
    </g>
</svg>

<svg width="100" height="75" xmlns="http://www.w3.org/2000/svg"><g fill-rule="nonzero" fill="none"><path d="M52.735.05L52.55 0 6.137 13v10.4c0 .387.308.7.687.7a.693.693 0 00.686-.7v-9.32L52.549 1.44l45.049 12.64v59.53h-3.794v-41H54.588v41h-5.882V40.94c0-.387-.307-.7-.686-.7a.693.693 0 00-.687.7v32.67H5.57V41.19a.691.691 0 00-.682-.616.691.691 0 00-.681.616V75H99.02V13L52.735.05zM55.98 34h36.451v39.61h-36.45V34z" fill="#A8C5DD"/><path d="M59.176 39.32h30.04a.682.682 0 00.662-.321.712.712 0 000-.748.682.682 0 00-.662-.321h-30.04a.682.682 0 00-.662.321.712.712 0 000 .748c.142.228.4.353.662.321zM89.216 44h-30.04a.682.682 0 00-.662.321.712.712 0 000 .748c.142.228.4.353.662.321h30.04a.682.682 0 00.662-.321.712.712 0 000-.748.682.682 0 00-.662-.321zM89.216 50.05h-30.04a.682.682 0 00-.662.321.712.712 0 000 .748c.142.228.4.353.662.321h30.04a.682.682 0 00.662-.321.712.712 0 000-.748.682.682 0 00-.662-.321zM89.216 56.11h-30.04a.682.682 0 00-.662.321.712.712 0 000 .748c.142.228.4.353.662.321h30.04a.682.682 0 00.662-.321.712.712 0 000-.748.682.682 0 00-.662-.321zM89.216 62.17h-30.04a.682.682 0 00-.662.321.712.712 0 000 .748c.142.228.4.353.662.321h30.04a.682.682 0 00.662-.321.712.712 0 000-.748.682.682 0 00-.662-.321zM89.216 68.23h-30.04a.682.682 0 00-.662.321.712.712 0 000 .748c.142.228.4.353.662.321h30.04a.682.682 0 00.662-.321.712.712 0 000-.748.682.682 0 00-.662-.321zM61.863 15.83v12.68h25.764V15.83H61.863zm24.412 11.29h-23.04v-9.9h23.04v9.9z" fill="#A8C5DD"/><path d="M74.745 25.57c1.846-.006 3.339-1.537 3.333-3.42-.005-1.883-1.506-3.405-3.353-3.4-1.846.006-3.338 1.537-3.333 3.42.01 1.881 1.509 3.4 3.353 3.4zm0-5.42c1.083 0 1.96.895 1.96 2s-.877 2-1.96 2-1.96-.895-1.96-2 .877-2 1.96-2z" fill="#A8C5DD"/><path d="M25.03 63.05H8.577V50.83H25.03v12.22zM9.94 61.66h13.726v-9.44H9.94v9.44zM44.627 73.63h-1.362V50.61h-14.03v23.02h-1.372V49.22h16.764z" fill="#032663"/><path d="M52.265 32.26a.52.52 0 000-.13V32a.092.092 0 010-.05l-5.373-9.22h-40.5L.98 32a.64.64 0 00-.068.26v1.78c0 3.84 2.51 7.8 6.706 7.8 2.048.01 4.067-.491 5.882-1.46 1.412 2.11 2.941 3.24 6.196 3.24a7.895 7.895 0 006.05-2.36 10.01 10.01 0 006.862 2.36c3.176 0 5.431-1 7.04-3.23a9.053 9.053 0 005.028 1.45c4.135-.18 7.434-3.581 7.57-7.8V32.3s.019-.03.019-.04zm-1.853-.64H40.039l-2.186-7.52h8.225l4.334 7.52zM25.059 24.1v7.52h-10.48l2.186-7.52h8.294zm1.363 0h10.02l2.185 7.52H26.471l-.05-7.52zm-19.255 0h8.186l-2.186 7.52H2.794l4.373-7.52zm-4.902 10V33H13v6.1c-1.127.92-3.765 1.42-5.363 1.42-3.353-.01-5.353-3.28-5.353-6.44l-.02.02zm17.421 8.2c-2.608 0-3.921-.73-5.353-3.07V33H25.06v6.43c.004.159.063.31.166.43a6.578 6.578 0 01-5.52 2.42l-.019.02zm12.932 0c-2.736 0-5.069-.88-6.383-2.43a.688.688 0 00.167-.43V33h12.45v6.2c-1.362 2.13-3.283 3.08-6.215 3.08l-.02.02zm12.088-1.79a7.34 7.34 0 01-4.51-1.41V33h10.726v1.09c-.11 3.468-2.818 6.265-6.216 6.42z" fill="#2969F6"/></g></svg>
